www/assets/icons/power_off.svg

<svg xmlns="http://www.w3.org/2000/svg" width="24" height="24" viewBox="0 0 24 24" fill='currentColor'><path d="M18.29 13.99V8.5c0-1-1.01-2.01-2-2v-4h-2v4h-4v-4h-2v2.48l9.51 9.5zm-1.76 1.77L7.49 6.7l-.01.01L4.27 3.5 3 4.75l3.36 3.36c-.03.13-.07.26-.07.39v5.48l3.5 3.52v3h5v-3l.48-.48 4.47 4.48L21 20.22z"/></svg>

<svg width="24" height="24" viewBox="0 0 24 24" xmlns="http://www.w3.org/2000/svg" fill='currentColor'><path d="M18.29 13.99V8.5C18.29 7.5 17.28 6.49 16.29 6.5V2.5H14.29V6.5H10.29V2.5H8.29V4.98L17.8 14.48L18.29 13.99ZM16.53 15.76L7.49 6.7L7.48 6.71L4.27 3.5L3 4.75L6.36 8.11C6.33 8.24 6.29 8.37 6.29 8.5V13.98L9.79 17.5V20.5H14.79V17.5L15.27 17.02L19.74 21.5L21 20.22L16.53 15.76Z"/></svg>
